;FLAVOR:Marlin
;TIME:5235
;Filament used: 6.11204m, 0m
;Layer height: 0.2
;MINX:104.142
;MINY:109.323
;MINZ:0.2
;MAXX:168.965
;MAXY:199.579
;MAXZ:22
;Generated with Cura_SteamEngine 4.8.0
T0
M140 S60
M105
M190 S60
M104 S200
M105
M109 S200
M82 ;absolute extrusion mode
G28 ;Home
G1 Z15.0 F6000 ;Move the platform down 15mm
;Prime the extruder
G92 E0
G1 F200 E3
G92 E0
G92 E0
G92 E0
G1 F2400 E-1
;LAYER_COUNT:110
;LAYER:0
M106 S76.5
G0 F6000 X113.967 Y112.041 Z0.2
;TYPE:SKIRT
G1 F2400 E0
G1 F1800 X114.37 Y111.644 E0.01994
G1 X114.825 Y111.309 E0.03985
G1 X115.323 Y111.041 E0.05979
G1 X115.853 Y110.845 E0.0797
G1 X116.406 Y110.727 E0.09963
G1 X117.175 Y110.68 E0.12679
G1 X117.287 Y110.678 E0.13073
G1 X121.202 Y110.678 E0.26872
G1 X121.917 Y110.676 E0.29392
G1 X128.017 Y110.678 E0.50892
G1 X129.652 Y110.701 E0.56655
G1 X132.383 Y110.701 E0.6628
G1 X135.054 Y110.625 E0.75698
G1 X137.793 Y110.47 E0.85367
G1 X140.521 Y110.238 E0.95017
G1 X143.187 Y109.934 E1.04474
G1 X145.883 Y109.55 E1.14072
G1 X146.325 Y109.477 E1.15651
G1 X146.989 Y109.378 E1.18018
G1 X147.596 Y109.331 E1.20163
G1 X148.138 Y109.324 E1.22074
G1 X164.295 Y109.323 E1.7902
G1 X165.004 Y109.333 E1.81519
G1 X165.568 Y109.381 E1.83514
G1 X166.119 Y109.508 E1.85507
G1 X166.646 Y109.711 E1.87497
G1 X167.14 Y109.987 E1.89492
G1 X167.59 Y110.329 E1.91484
G1 X167.987 Y110.732 E1.93478
G1 X168.323 Y111.186 E1.95468
G1 X168.592 Y111.683 E1.9746
G1 X168.788 Y112.214 E1.99455
G1 X168.936 Y113.029 E2.02375
G1 X168.963 Y113.845 E2.05252
G1 X168.965 Y120.74 E2.29554
G1 X168.953 Y121.562 E2.32451
G1 X168.886 Y122.236 E2.34839
G1 X168.728 Y123.08 E2.37865
G1 X168.271 Y125.746 E2.47399
G1 X167.887 Y128.448 E2.57018
G1 X167.583 Y131.122 E2.66503
G1 X167.352 Y133.843 E2.76128
G1 X167.198 Y136.557 E2.85709
G1 X167.111 Y140.666 E3.00194
G1 X167.111 Y186.624 E4.62175
G1 X167.136 Y188.375 E4.68347
G1 X167.142 Y189.161 E4.71117
G1 X167.142 Y194.898 E4.91338
G1 X167.132 Y195.625 E4.939
G1 X167.084 Y196.188 E4.95892
G1 X166.957 Y196.739 E4.97885
G1 X166.754 Y197.267 E4.99878
G1 X166.479 Y197.761 E5.01871
G1 X166.137 Y198.211 E5.03863
G1 X165.734 Y198.608 E5.05857
G1 X165.28 Y198.944 E5.07848
G1 X164.783 Y199.213 E5.0984
G1 X164.253 Y199.41 E5.11833
G1 X163.7 Y199.529 E5.13826
G1 X162.924 Y199.577 E5.16566
G1 X162.812 Y199.579 E5.16961
G1 X108.797 Y199.579 E7.07339
G1 X108.099 Y199.57 E7.098
G1 X107.536 Y199.522 E7.11791
G1 X106.985 Y199.396 E7.13783
G1 X106.457 Y199.194 E7.15776
G1 X105.963 Y198.919 E7.17768
G1 X105.513 Y198.577 E7.19761
G1 X105.115 Y198.175 E7.21754
G1 X104.779 Y197.721 E7.23745
G1 X104.509 Y197.224 E7.25739
G1 X104.312 Y196.694 E7.27731
G1 X104.192 Y196.142 E7.29722
G1 X104.143 Y195.345 E7.32537
G1 X104.142 Y189.524 E7.53053
G1 X104.153 Y188.818 E7.55542
G1 X104.202 Y188.254 E7.57537
G1 X104.281 Y187.875 E7.58902
G1 X105.031 Y184.988 E7.69415
G1 X105.627 Y182.391 E7.78806
G1 X106.164 Y179.709 E7.88446
G1 X106.624 Y177.019 E7.98065
G1 X106.999 Y174.368 E8.07501
G1 X107.308 Y171.639 E8.17181
G1 X107.536 Y168.94 E8.26728
G1 X107.688 Y166.231 E8.36291
G1 X107.773 Y162.179 E8.50576
G1 X107.774 Y135.545 E9.44448
G1 X107.784 Y134.843 E9.46923
G1 X107.832 Y134.28 E9.48914
G1 X108.025 Y133.531 E9.5164
G1 X108.088 Y133.358 E9.52289
G1 X109.003 Y130.769 E9.61967
G1 X109.829 Y128.197 E9.71488
G1 X110.586 Y125.59 E9.81056
G1 X111.265 Y122.978 E9.90569
G1 X111.889 Y120.274 E10.00349
G1 X112.409 Y117.675 E10.09691
G1 X112.875 Y114.953 E10.19425
G1 X113.016 Y114.061 E10.22607
G1 X113.144 Y113.511 E10.24598
G1 X113.348 Y112.983 E10.26593
G1 X113.624 Y112.49 E10.28584
G1 X113.967 Y112.041 E10.30576
G0 F6000 X114.341 Y112.224
G1 F1800 X114.736 Y111.861 E10.32466
G1 X115.181 Y111.561 E10.34358
G1 X115.665 Y111.331 E10.36247
G1 X116.178 Y111.174 E10.38137
G1 X116.866 Y111.088 E10.40581
G1 X117.287 Y111.078 E10.42065
G1 X121.203 Y111.078 E10.55868
G1 X121.917 Y111.076 E10.58384
G1 X128.012 Y111.078 E10.79866
G1 X129.647 Y111.101 E10.85629
G1 X132.358 Y111.101 E10.95184
G1 X135.123 Y111.023 E11.04934
G1 X137.816 Y110.87 E11.1444
G1 X140.533 Y110.639 E11.24051
G1 X143.248 Y110.33 E11.33682
G1 X145.966 Y109.942 E11.43359
G1 X146.384 Y109.872 E11.44853
G1 X147.048 Y109.773 E11.47219
G1 X147.609 Y109.731 E11.49202
G1 X148.138 Y109.724 E11.51066
G1 X164.29 Y109.723 E12.07995
G1 X164.999 Y109.733 E12.10494
G1 X165.533 Y109.781 E12.12383
G1 X166.054 Y109.907 E12.14273
G1 X166.551 Y110.109 E12.16164
G1 X167.012 Y110.383 E12.18054
G1 X167.427 Y110.723 E12.19945
G1 X167.787 Y111.12 E12.21833
G1 X168.085 Y111.566 E12.23724
G1 X168.312 Y112.052 E12.25615
G1 X168.465 Y112.566 E12.27505
G1 X168.548 Y113.19 E12.29723
G1 X168.563 Y113.85 E12.3205
G1 X168.565 Y120.735 E12.56317
G1 X168.553 Y121.557 E12.59214
G1 X168.492 Y122.162 E12.61357
G1 X168.335 Y123.006 E12.64383
G1 X167.875 Y125.693 E12.73991
G1 X167.495 Y128.364 E12.835
G1 X167.182 Y131.11 E12.93241
G1 X166.952 Y133.821 E13.0283
G1 X166.799 Y136.528 E13.12387
G1 X166.711 Y140.657 E13.26943
G1 X166.711 Y186.63 E14.88976
G1 X166.736 Y188.379 E14.95141
G1 X166.742 Y189.165 E14.97912
G1 X166.742 Y194.893 E15.181
G1 X166.732 Y195.62 E15.20663
G1 X166.684 Y196.154 E15.22553
G1 X166.558 Y196.675 E15.24442
G1 X166.356 Y197.172 E15.26333
G1 X166.082 Y197.633 E15.28223
G1 X165.743 Y198.048 E15.30111
G1 X165.346 Y198.409 E15.32003
G1 X164.9 Y198.706 E15.33891
G1 X164.414 Y198.934 E15.35783
G1 X163.9 Y199.087 E15.37674
G1 X163.233 Y199.169 E15.40042
G1 X162.812 Y199.179 E15.41526
G1 X108.803 Y199.179 E17.31883
G1 X108.105 Y199.17 E17.34343
G1 X107.57 Y199.123 E17.36236
G1 X107.049 Y198.997 E17.38126
G1 X106.552 Y198.795 E17.40016
G1 X106.091 Y198.522 E17.41905
G1 X105.675 Y198.183 E17.43796
G1 X105.314 Y197.787 E17.45685
G1 X105.016 Y197.341 E17.47575
G1 X104.788 Y196.855 E17.49467
G1 X104.635 Y196.341 E17.51358
G1 X104.552 Y195.667 E17.53751
G1 X104.542 Y195.237 E17.55267
G1 X104.542 Y189.53 E17.75382
G1 X104.553 Y188.824 E17.7787
G1 X104.602 Y188.29 E17.7976
G1 X104.669 Y187.975 E17.80895
G1 X105.405 Y185.139 E17.91222
G1 X106.024 Y182.446 E18.00961
G1 X106.556 Y179.789 E18.10512
G1 X107.02 Y177.07 E18.20233
G1 X107.399 Y174.398 E18.29745
G1 X107.707 Y171.681 E18.39383
G1 X107.936 Y168.962 E18.49
G1 X108.087 Y166.262 E18.58531
G1 X108.173 Y162.187 E18.72897
G1 X108.174 Y135.551 E19.66776
G1 X108.184 Y134.849 E19.69251
G1 X108.232 Y134.315 E19.7114
G1 X108.401 Y133.668 E19.73497
G1 X108.465 Y133.495 E19.74148
G1 X109.378 Y130.908 E19.83817
G1 X110.208 Y128.326 E19.93376
G1 X110.972 Y125.698 E20.03022
G1 X111.657 Y123.063 E20.12617
G1 X112.277 Y120.371 E20.22354
G1 X112.809 Y117.715 E20.31901
G1 X113.262 Y115.065 E20.41377
G1 X113.411 Y114.124 E20.44734
G1 X113.534 Y113.602 E20.46625
G1 X113.734 Y113.104 E20.48516
G1 X114.005 Y112.641 E20.50407
G1 X114.341 Y112.224 E20.52294
G0 F6000 X114.714 Y112.415
G1 F1800 X115.1 Y112.088 E20.54077
G1 X115.533 Y111.827 E20.55859
G1 X116.001 Y111.636 E20.57641
G1 X116.493 Y111.522 E20.59421
G1 X117.197 Y111.479 E20.61907
G1 X121.917 Y111.476 E20.78543
G1 X128.006 Y111.478 E21.00004
G1 X129.641 Y111.501 E21.05767
G1 X132.369 Y111.501 E21.15382
G1 X135.122 Y111.423 E21.25089
G1 X137.869 Y111.267 E21.34786
G1 X140.578 Y111.037 E21.44369
G1 X143.283 Y110.729 E21.53964
G1 X146.003 Y110.341 E21.63648
G1 X146.443 Y110.268 E21.6522
G1 X147.107 Y110.169 E21.67586
G1 X147.622 Y110.131 E21.69406
G1 X148.138 Y110.124 E21.71225
G1 X164.284 Y110.123 E22.28132
G1 X164.993 Y110.133 E22.30631
G1 X165.497 Y110.18 E22.32415
G1 X165.986 Y110.306 E22.34195
G1 X166.45 Y110.507 E22.35977
G1 X166.876 Y110.779 E22.37759
G1 X167.254 Y111.115 E22.39541
G1 X167.575 Y111.506 E22.41324
G1 X167.83 Y111.942 E22.43104
G1 X168.013 Y112.414 E22.44889
G1 X168.139 Y113.089 E22.47309
G1 X168.163 Y113.855 E22.5001
G1 X168.165 Y120.729 E22.74238
G1 X168.153 Y121.551 E22.77135
G1 X168.099 Y122.089 E22.79041
G1 X167.942 Y122.933 E22.82067
G1 X167.478 Y125.641 E22.9175
G1 X167.093 Y128.352 E23.01401
G1 X166.789 Y131.016 E23.10851
G1 X166.553 Y133.8 E23.20699
G1 X166.399 Y136.524 E23.30315
G1 X166.311 Y140.628 E23.44783
G1 X166.311 Y186.636 E25.0694
G1 X166.336 Y188.382 E25.13095
G1 X166.342 Y189.168 E25.15865
G1 X166.342 Y194.887 E25.36022
G1 X166.332 Y195.614 E25.38584
G1 X166.285 Y196.117 E25.40365
G1 X166.159 Y196.607 E25.42148
G1 X165.958 Y197.071 E25.4393
G1 X165.686 Y197.497 E25.45712
G1 X165.351 Y197.876 E25.47495
G1 X164.96 Y198.196 E25.49275
G1 X164.524 Y198.451 E25.51056
G1 X164.053 Y198.635 E25.52838
G1 X163.558 Y198.741 E25.54622
G1 X162.902 Y198.778 E25.56938
G1 X108.808 Y198.779 E27.47594
G1 X108.11 Y198.77 E27.50055
G1 X107.606 Y198.723 E27.51839
G1 X107.116 Y198.598 E27.53621
G1 X106.652 Y198.397 E27.55403
G1 X106.226 Y198.126 E27.57183
G1 X105.847 Y197.791 E27.58965
G1 X105.526 Y197.4 E27.60749
G1 X105.271 Y196.964 E27.62529
G1 X105.087 Y196.493 E27.64311
G1 X104.98 Y195.999 E27.66092
G1 X104.943 Y195.323 E27.68479
G1 X104.942 Y189.536 E27.88875
G1 X104.953 Y188.83 E27.91364
G1 X105.001 Y188.327 E27.93145
G1 X105.056 Y188.076 E27.9405
G1 X105.796 Y185.224 E28.04435
G1 X106.411 Y182.55 E28.14106
G1 X106.96 Y179.808 E28.23962
G1 X107.412 Y177.158 E28.33437
G1 X107.793 Y174.467 E28.43016
G1 X108.104 Y171.724 E28.52746
G1 X108.335 Y168.985 E28.62434
G1 X108.487 Y166.263 E28.72042
G1 X108.573 Y162.216 E28.86309
G1 X108.574 Y135.556 E29.80274
G1 X108.584 Y134.854 E29.82748
G1 X108.631 Y134.351 E29.84529
G1 X108.777 Y133.805 E29.86521
G1 X108.84 Y133.632 E29.8717
G1 X109.749 Y131.058 E29.96791
G1 X110.596 Y128.422 E30.06549
G1 X111.359 Y125.796 E30.16188
G1 X112.048 Y123.149 E30.25828
G1 X112.664 Y120.474 E30.35503
G1 X113.202 Y117.789 E30.45154
G1 X113.657 Y115.128 E30.54669
G1 X113.806 Y114.187 E30.58027
G1 X113.925 Y113.695 E30.59811
G1 X114.119 Y113.228 E30.61594
G1 X114.384 Y112.798 E30.63374
G1 X114.714 Y112.415 E30.65156
G1 F2400 E29.65156
G0 F6000 X121.37 Y114.017
G0 X122.113 Y114.878
;TYPE:SUPPORT
G1 F2400 E30.65156
G1 F3600 X123.5 Y114.878 E30.70044
G1 X123.5 Y117.178 E30.78151
G1 X122.114 Y117.178 E30.83036
G1 X122.113 Y114.878 E30.91142
G0 F6000 X122.682 Y114.978
G1 F3600 X122.682 Y117.078 E30.98544
G1 F2400 E29.98544
G0 F6000 X121.874 Y114.521
G0 X116.8 Y114.017
G0 X116.296 Y124.935
G0 X121.774 Y134.979
G1 F2400 E30.98544
G1 F3600 X121.774 Y154.58 E31.67628
G1 X122.173 Y154.979 E31.69617
G1 X152.712 Y154.979 E32.77253
G1 X153.111 Y154.58 E32.79242
G1 X153.111 Y134.979 E33.48326
G1 X162.911 Y134.979 E33.82866
G1 X162.911 Y187.979 E35.69667
G1 X133.192 Y187.979 E36.74413
G1 X133.192 Y168.623 E37.42634
G1 X132.548 Y167.979 E37.45844
G1 X129.336 Y167.979 E37.57165
G1 X128.692 Y168.623 E37.60375
G1 X128.692 Y187.979 E38.28596
G1 X111.973 Y187.979 E38.87522
G1 X111.974 Y134.979 E40.74323
G1 X121.774 Y134.979 E41.08863
G0 F6000 X121.673 Y136.017
G1 F3600 X112.073 Y136.017 E41.42699
G0 F6000 X112.073 Y138.684
G1 F3600 X121.673 Y138.684 E41.76534
G0 F6000 X121.673 Y141.351
G1 F3600 X112.073 Y141.351 E42.1037
G0 F6000 X112.073 Y144.018
G1 F3600 X121.673 Y144.018 E42.44206
G0 F6000 X121.673 Y146.685
G1 F3600 X112.073 Y146.685 E42.78041
G0 F6000 X112.073 Y149.352
G1 F3600 X121.673 Y149.352 E43.11877
G0 F6000 X121.673 Y152.019
G1 F3600 X112.073 Y152.019 E43.45712
G0 F6000 X112.073 Y154.686
G1 F3600 X121.738 Y154.686 E43.79777
G0 F6000 X122.682 Y155.079
G1 F3600 X122.682 Y187.879 E44.95382
G0 F6000 X120.015 Y187.879
G1 F3600 X120.015 Y135.079 E46.81477
G0 F6000 X117.348 Y135.079
G1 F3600 X117.348 Y187.879 E48.67573
G0 F6000 X114.681 Y187.879
G1 F3600 X114.681 Y135.079 E50.53669
G0 F6000 X112.073 Y157.353
G1 F3600 X162.811 Y157.353 E52.32497
G0 F6000 X162.811 Y154.686
G1 F3600 X153.146 Y154.686 E52.66561
G0 F6000 X152.019 Y155.079
G1 F3600 X152.019 Y187.879 E53.82166
G0 F6000 X149.352 Y187.879
G1 F3600 X149.352 Y155.079 E54.97771
G0 F6000 X146.685 Y155.079
G1 F3600 X146.685 Y187.879 E56.13376
G0 F6000 X144.018 Y187.879
G1 F3600 X144.018 Y155.079 E57.28981
G0 F6000 X141.351 Y155.079
G1 F3600 X141.351 Y187.879 E58.44586
G0 F6000 X138.684 Y187.879
G1 F3600 X138.684 Y155.079 E59.60191
G0 F6000 X136.017 Y155.079
G1 F3600 X136.017 Y187.879 E60.75795
G0 F6000 X133.35 Y187.879
G1 F3600 X133.35 Y155.079 E61.914
G0 F6000 X130.683 Y155.079
G1 F3600 X130.683 Y167.879 E62.36514
G0 F6000 X129.152 Y168.021
G1 F3600 X112.073 Y168.021 E62.9671
G0 F6000 X112.073 Y165.354
G1 F3600 X162.811 Y165.354 E64.75538
G0 F6000 X162.811 Y162.687
G1 F3600 X112.073 Y162.687 E66.54366
G0 F6000 X112.073 Y160.02
G1 F3600 X162.811 Y160.02 E68.33194
G0 F6000 X162.811 Y168.021
G1 F3600 X132.731 Y168.021 E69.39212
G1 F2400 E68.39212
G0 F6000 X133.292 Y170.688
G1 F2400 E69.39212
G1 F3600 X162.811 Y170.688 E70.43253
G0 F6000 X162.811 Y173.355
G1 F3600 X133.292 Y173.355 E71.47294
G0 F6000 X133.292 Y176.022
G1 F3600 X162.811 Y176.022 E72.51335
G0 F6000 X162.811 Y178.689
G1 F3600 X133.292 Y178.689 E73.55376
G0 F6000 X133.292 Y181.356
G1 F3600 X162.811 Y181.356 E74.59417
G0 F6000 X162.811 Y184.023
G1 F3600 X133.292 Y184.023 E75.63457
G0 F6000 X133.292 Y186.69
G1 F3600 X162.811 Y186.69 E76.67498
G0 F6000 X162.687 Y187.879
G1 F3600 X162.687 Y135.079 E78.53594
G0 F6000 X162.811 Y136.017
G1 F3600 X153.211 Y136.017 E78.87429
G0 F6000 X154.686 Y135.079
G1 F3600 X154.686 Y187.879 E80.73525
G0 F6000 X157.353 Y187.879
G1 F3600 X157.353 Y135.079 E82.59621
G0 F6000 X160.02 Y135.079
G1 F3600 X160.02 Y187.879 E84.45716
G1 F2400 E83.45716
G0 F6000 X132.449 Y168.218
G0 X129.435 Y168.218
G0 X128.591 Y186.69
G1 F2400 E84.45716
G1 F3600 X112.073 Y186.69 E85.03935
G0 F6000 X112.073 Y184.023
G1 F3600 X128.591 Y184.023 E85.62153
G0 F6000 X128.591 Y181.356
G1 F3600 X112.073 Y181.356 E86.20371
G0 F6000 X112.073 Y178.689
G1 F3600 X128.591 Y178.689 E86.7859
G0 F6000 X128.591 Y176.022
G1 F3600 X112.073 Y176.022 E87.36808
G0 F6000 X112.073 Y173.355
G1 F3600 X128.591 Y173.355 E87.95026
G0 F6000 X128.591 Y170.688
G1 F3600 X112.073 Y170.688 E88.53245
G0 F6000 X125.349 Y155.079
G1 F3600 X125.349 Y187.879 E89.68849
G0 F6000 X128.016 Y187.879
G1 F3600 X128.016 Y155.079 E90.84454
G0 F6000 X153.211 Y152.019
G1 F3600 X162.811 Y152.019 E91.1829
G0 F6000 X162.811 Y149.352
G1 F3600 X153.211 Y149.352 E91.52125
G0 F6000 X153.211 Y146.685
G1 F3600 X162.811 Y146.685 E91.85961
G0 F6000 X162.811 Y144.018
G1 F3600 X153.211 Y144.018 E92.19797
G0 F6000 X153.211 Y141.351
G1 F3600 X162.811 Y141.351 E92.53632
G0 F6000 X162.811 Y138.684
G1 F3600 X153.211 Y138.684 E92.87468
G1 F2400 E91.87468
;MESH:fan mount v4-fan snap.STL
G0 F6000 X153.211 Y121.239
G0 X153.211 Y119.954
G0 X164.263 Y114.123
G0 X164.363 Y114.123
;TYPE:WALL-INNER
G1 F2400 E92.87468
G1 F2160 X164.363 Y119.974 E93.0809
G1 X148.163 Y119.974 E93.65187
G1 X148.163 Y113.924 E93.86511
G1 X164.163 Y113.923 E94.42903
G1 X164.363 Y113.923 E94.43608
G1 X164.363 Y114.123 E94.44065
G0 F6000 X164.763 Y113.723
;TYPE:WALL-OUTER
G1 F2160 X164.763 Y120.374 E94.67506
G1 X147.763 Y120.374 E95.27424
G1 X147.763 Y113.524 E95.51567
G1 X164.563 Y113.523 E96.10779
G1 X164.763 Y113.523 E96.11484
G1 X164.763 Y113.723 E96.1194
G0 F6000 X164.763 Y113.898
G0 X163.973 Y114.313
;TYPE:SKIN
G1 F2160 X163.973 Y119.584 E96.30518
G1 X148.553 Y119.584 E96.84867
G1 X148.553 Y114.314 E97.03441
G1 X163.973 Y114.313 E97.57789
G0 F6000 X163.792 Y114.577
G1 F2160 X163.707 Y114.493 E97.5821
G0 F6000 X163.142 Y114.493
G1 F2160 X163.792 Y115.143 E97.6145
G0 F6000 X163.792 Y115.708
G1 F2160 X162.576 Y114.493 E97.67509
G0 F6000 X162.01 Y114.493
G1 F2160 X163.792 Y116.274 E97.76389
G0 F6000 X163.792 Y116.84
G1 F2160 X161.445 Y114.493 E97.88087
G0 F6000 X160.879 Y114.493
G1 F2160 X163.792 Y117.405 E98.02604
G0 F6000 X163.792 Y117.971
G1 F2160 X160.313 Y114.493 E98.19943
G0 F6000 X159.748 Y114.493
G1 F2160 X163.792 Y118.537 E98.401
G0 F6000 X163.792 Y119.102
G1 F2160 X159.182 Y114.493 E98.63076
G0 F6000 X158.616 Y114.493
G1 F2160 X163.527 Y119.404 E98.87554
G0 F6000 X162.961 Y119.404
G1 F2160 X158.051 Y114.493 E99.12031
G0 F6000 X157.485 Y114.493
G1 F2160 X162.396 Y119.404 E99.36509
G0 F6000 X161.83 Y119.404
G1 F2160 X156.919 Y114.493 E99.60988
G0 F6000 X156.354 Y114.493
G1 F2160 X161.264 Y119.404 E99.85464
